assets/report/china-popculture/cp-refresh-icon.svg

<svg fill="none" height="16" viewBox="0 0 13 16" width="13" xmlns="http://www.w3.org/2000/svg"><path d="m6.39746 8.09375c.24609 0 .45117-.08203.6084-.24609l2.7959-2.83008c.1914-.19141.28714-.41016.28714-.66309 0-.23926-.10257-.47851-.28714-.66308l-2.78906-2.836918c-.16407-.177734-.36915-.259765-.61524-.259765-.49219 0-.88184.396484-.88184.902343 0 .24609.09571.43066.2461.58789l1.30566 1.27832c-.21191-.02734-.42383-.03418-.6289-.03418-3.44532 0-6.179691 2.74121-6.179691 6.2002 0 3.4521 2.789061 6.248 6.241211 6.248s6.2412-2.7959 6.2412-6.248c0-.55371-.3896-.93653-.9297-.93653-.5263 0-.8955.38282-.8955.93653 0 2.4473-1.96873 4.416-4.416 4.416s-4.40918-1.9687-4.40918-4.416c0-2.50196 1.90723-4.4502 4.34766-4.4502.30761 0 .58789.01367.84765.04102l-1.52441 1.5039c-.15039.15723-.2461.33496-.2461.58106 0 .49902.38965.88867.88184.88867z" fill="#f50e0e"/></svg>

<svg width="13" height="16" viewBox="0 0 13 16" fill="none" xmlns="http://www.w3.org/2000/svg">
<path d="M6.39746 8.09375C6.64355 8.09375 6.84863 8.01172 7.00586 7.84766L9.80176 5.01758C9.99316 4.82617 10.0889 4.60742 10.0889 4.35449C10.0889 4.11523 9.98633 3.87598 9.80176 3.69141L7.0127 0.854492C6.84863 0.676758 6.64355 0.594727 6.39746 0.594727C5.90527 0.594727 5.51562 0.991211 5.51562 1.49707C5.51562 1.74316 5.61133 1.92773 5.76172 2.08496L7.06738 3.36328C6.85547 3.33594 6.64355 3.3291 6.43848 3.3291C2.99316 3.3291 0.258789 6.07031 0.258789 9.5293C0.258789 12.9814 3.04785 15.7773 6.5 15.7773C9.95215 15.7773 12.7412 12.9814 12.7412 9.5293C12.7412 8.97559 12.3516 8.59277 11.8115 8.59277C11.2852 8.59277 10.916 8.97559 10.916 9.5293C10.916 11.9766 8.94727 13.9453 6.5 13.9453C4.05273 13.9453 2.09082 11.9766 2.09082 9.5293C2.09082 7.02734 3.99805 5.0791 6.43848 5.0791C6.74609 5.0791 7.02637 5.09277 7.28613 5.12012L5.76172 6.62402C5.61133 6.78125 5.51562 6.95898 5.51562 7.20508C5.51562 7.7041 5.90527 8.09375 6.39746 8.09375Z" fill="#F50E0E"/>
</svg>
